build/images/header/left-vector-xs.svg

<svg width="230" height="46" viewBox="0 0 230 46" fill="none" xmlns="http://www.w3.org/2000/svg">
<path d="M229.46 35L216.448 24H137.011L124 34.8" stroke="white"/>
<path d="M49 3C49 4.65685 47.6569 6 46 6C44.3431 6 43 4.65685 43 3C43 1.34315 44.3431 0 46 0C47.6569 0 49 1.34315 49 3Z" fill="white"/>
<circle cx="122.5" cy="36.5" r="2.5" stroke="white"/>
<path d="M12.5865 44V44.5H12.3831L12.2375 44.358L12.5865 44ZM1.08739 33.0178L0.74353 33.3807L0.589554 33.2349L0.587418 33.0228L1.08739 33.0178ZM1.08739 3L0.587479 2.99065L0.596649 2.5H1.08739V3ZM124.696 44L125.003 44.3944L124.868 44.5H124.696V44ZM138.39 33.3271L138.083 32.9327L138.219 32.8271H138.39V33.3271ZM12.2375 44.358C10.6177 42.779 7.74507 40.0355 5.2755 37.685C4.04112 36.5101 2.90811 35.434 2.08368 34.6516C1.67146 34.2605 1.33641 33.9427 1.10442 33.7228C0.988419 33.6128 0.898193 33.5273 0.83696 33.4693C0.806351 33.4403 0.78299 33.4181 0.767288 33.4032C0.75943 33.3958 0.753494 33.3902 0.749512 33.3864C0.747528 33.3845 0.746033 33.3831 0.745026 33.3822C0.744537 33.3817 0.744156 33.3813 0.743912 33.3811C0.74379 33.381 0.743698 33.3809 0.743622 33.3808C0.743561 33.3808 0.74353 33.3807 1.08739 33.0178C1.43124 32.6548 1.43127 32.6548 1.43135 32.6549C1.43141 32.6549 1.4315 32.655 1.43163 32.6551C1.43188 32.6554 1.43227 32.6557 1.43275 32.6562C1.43376 32.6571 1.43527 32.6586 1.43726 32.6605C1.44124 32.6642 1.44719 32.6699 1.45506 32.6773C1.47079 32.6922 1.49417 32.7144 1.52481 32.7434C1.58609 32.8015 1.67636 32.887 1.79242 32.9971C2.02452 33.2171 2.3597 33.535 2.77203 33.9263C3.59671 34.7089 4.7301 35.7853 5.96494 36.9606C8.43378 39.3105 11.3107 42.0581 12.9355 43.642L12.2375 44.358ZM1.08739 33.0178C0.587418 33.0228 0.587418 33.0227 0.587418 33.0226C0.587418 33.0224 0.587418 33.0222 0.587402 33.0219C0.587402 33.0213 0.587387 33.0204 0.587387 33.0192C0.587357 33.0168 0.587326 33.0133 0.58728 33.0086C0.587189 32.9991 0.587036 32.985 0.586853 32.9664C0.586487 32.9291 0.585953 32.8737 0.585251 32.8009C0.583862 32.6554 0.581848 32.4407 0.579346 32.1637C0.574356 31.6097 0.567444 30.8065 0.559753 29.8099C0.544388 27.8168 0.525955 25.0496 0.513657 21.9538C0.489075 15.7636 0.489044 8.25411 0.587479 2.99065L1.58731 3.00935C1.48911 8.26038 1.48906 15.7598 1.51364 21.9498C1.52594 25.0441 1.54437 27.81 1.55972 29.8022C1.5674 30.7983 1.57431 31.601 1.5793 32.1547C1.5818 32.4315 1.58382 32.646 1.58521 32.7914C1.58591 32.864 1.58644 32.9194 1.58681 32.9566C1.58699 32.9752 1.58713 32.9892 1.58722 32.9986C1.58728 33.0033 1.58731 33.0068 1.58733 33.0092C1.58734 33.0104 1.58736 33.0112 1.58736 33.0118C1.58736 33.0121 1.58736 33.0124 1.58737 33.0125C1.58737 33.0126 1.58737 33.0127 1.08739 33.0178ZM1.08739 2.5H43.3109V3.5H1.08739V2.5ZM124.389 43.6056L138.083 32.9327L138.698 33.7215L125.003 44.3944L124.389 43.6056ZM138.39 32.8271H155V33.8271H138.39V32.8271ZM124.696 44.5H12.5865V43.5H124.696V44.5Z" fill="white"/>
<path d="M1 38L8 45H1V38Z" fill="white" stroke="white"/>
<path d="M153 37C153.25 35.7361 154.25 33.5 157 33.5" stroke="white" stroke-width="0.88"/>
<path d="M153 30C153.25 31.2639 154.25 33.5 157 33.5" stroke="white" stroke-width="0.88"/>
</svg>

<svg width="230" height="46" fill="none" xmlns="http://www.w3.org/2000/svg"><path d="M229.46 35l-13.012-11h-79.437L124 34.8" stroke="#fff"/><path d="M49 3a3 3 0 11-6 0 3 3 0 016 0z" fill="#fff"/><circle cx="122.5" cy="36.5" r="2.5" stroke="#fff"/><path d="M12.586 44v.5h-.203l-.145-.142.348-.358zM1.087 33.018l-.343.363-.154-.146-.003-.212.5-.005zM1.087 3l-.5-.01.01-.49h.49V3zm123.609 41l.307.394-.135.106h-.172V44zm13.694-10.673l-.307-.394.136-.106h.171v.5zM12.238 44.358a990.762 990.762 0 00-6.962-6.673 3048.88 3048.88 0 00-4.439-4.216l-.07-.066a4.228 4.228 0 01-.022-.02l-.001-.002a202.636 202.636 0 01.687-.726l.002.001.004.005.018.016.07.066.267.254a2384.883 2384.883 0 014.173 3.964 992.643 992.643 0 016.97 6.681l-.697.716zm-11.15-11.34l-.5.005v-.014l-.001-.043-.002-.165A1250.81 1250.81 0 01.56 29.81c-.016-1.993-.034-4.76-.046-7.856-.025-6.19-.025-13.7.073-18.963l1 .018C1.49 8.26 1.49 15.76 1.514 21.95a2135.741 2135.741 0 00.071 10.842l.002.166v.054l-.5.006zm0-30.518H43.31v1H1.087v-1zm123.301 41.106l13.694-10.673.615.788-13.695 10.673-.614-.788zm14.001-10.779H155v1h-16.61v-1zM124.696 44.5H12.586v-1h112.11v1z" fill="#fff"/><path d="M1 38l7 7H1v-7z" fill="#fff" stroke="#fff"/><path d="M153 37c.25-1.264 1.25-3.5 4-3.5m-4-3.5c.25 1.264 1.25 3.5 4 3.5" stroke="#fff" stroke-width=".88"/></svg>
